X:1
T:Tijuana Taxi
T:Tijuana Taxi
T:Ervan Coleman   
T:Johnny Flamingo
C:Ervan Coleman
Z:All Rights Reserved
L:1/4
M:4/4
K:C
V:1 treble nm="Electric Piano"
%%MIDI program 4
V:1
 A c |:"F" f e d c |"C" _B2 G B |"C7" e d c _B |"F" A2 F A |"D7" d c _B A |"Gm" G2 G A | %7
w: Down in|old Ti- jua- na|town theres this|hap- py honk- ing|sound, some- thing|you just cant put|down its the|
w: |not im- pressed you|say with a|beat up Chev- ro-|let but that|driv- er man Jo-|se knows his|
"C7" c/c/ c3 | z _B A G |1"F" F/F/ F3- | F2 A c :|2"F" F F/F/ G F |:"C7" E C/C/ E F | G G/G/ A G | %14
w: world re- nown|Ti- jua- na|Tax- i cab|* so youre|town hey, ya wan- na|swing (you just tell Jo-|se) have your- self a|
w: way a- round|Ti- jua- na||||||
"F" F C/C/ F G | A F/F/ G F |"D7" ^F D/D/ F G | A A/A/ _B A |"Gm" G D/D/ G A | _B B B B | %20
w: fling (what- cha wan- na|play) meet some pret- ty|thing? (an- y time you|say) liv- in like a|king! (long as you can|pay) * * *|
w: ||||||
"Bb" c _B c B |"Bbm" z/ _B/c/B/ c B |"F" _B A B A |"D7" z/ A/_B/A/ B A |"Gm" A G A G | %25
w: pic- ture post- cards|"n hot te- qui- la|french per- fume man|from ven- e- zuel- a|when youre on a|
w: |||||
"C7" z/ G/A/G/ A G |"F" F4- | F2 z2 | z z A c | f e d c |"C" _B2 G B |"C7" e d c _B |"F" A2 F A | %33
w: Ti- jua- na tax- i|ride||give those|bulls a great big|hand. love that|mar- i- ach- i|band but the|
w: |||so ya|swing and go for|broke not a|pen- ny in your|poke got no|
"D7" d c _B A |"Gm" G2 G A |1"C7" c/c/ c3 | z _B A G |"F" F/F/ F3 | z F/F/ G F :|2"C7" c/c/ c2 c || %40
w: best thing in the|land is that|hand me down|Ti- jua- na|tax- i cab|hey ya wan- na|have your fling, the|
w: cig- ar- ettes to|smoke but ya||||||
 _B/B/ B2 B | A/A/ A2 A | G/G/ G2 G |"F" F z z"C7" c |"F" f z z2 | z4 | z4 |] %47
w: pret- ty thing and|ev- ry- thing is|ring- a- ding O-|Lei O-|Lei-|||
w: |||||||

